file-code-outline.svg

<svg fill="currentColor" viewBox="0 0 24 24"><path d="M14 2H6a2 2 0 0 0-2 2v16c0 1.11.89 2 2 2h12c1.11 0 2-.89 2-2V8zm4 18H6V4h7v5h5zm-8.46-4.35 2.09 2.09L10.35 19 7 15.65l3.35-3.35 1.28 1.26zm7.46 0L13.65 19l-1.27-1.26 2.09-2.09-2.09-2.09 1.27-1.26z"/></svg>

<svg  viewBox="0 0 24 24" fill="currentColor"><path  d="M14 2H6C4.89 2 4 2.9 4 4V20C4 21.11 4.89 22 6 22H18C19.11 22 20 21.11 20 20V8L14 2M18 20H6V4H13V9H18V20M9.54 15.65L11.63 17.74L10.35 19L7 15.65L10.35 12.3L11.63 13.56L9.54 15.65M17 15.65L13.65 19L12.38 17.74L14.47 15.65L12.38 13.56L13.65 12.3L17 15.65Z"/></svg>
